X:1
T:Cembalo Sonata D Major
T:Cembalo Sonata D Major
T:K. 335
T:Domenico Scarlatti (1685-1757)
C:Domenico Scarlatti (1685-1757)
%%score { 1 | 2 }
L:1/8
Q:1/4=158
M:2/2
K:D
V:1 treble nm="Cembalo" snm="Cbl."
V:2 bass 
V:1
"^Allegro" z2 dA d2 e2 | f2 ad e2 c2 | d2 dA d2 e2 | f2 ad e2 c2 | d4 a4- | a4 Pg4 | f4 a4- | %7
 a4"^[    ]" Pg4 | f2 dA f2 A2 | G2 cG e2 G2 | F2 fd a4- | a2 bd c2 d2 | e2 fg a4- | a2 bd c2 d2 | %14
[Q:1/4=158] e2 ae[Q:1/4=157]"^.9" a2[Q:1/4=157]"^.8" a[Q:1/4=157]"^.6"e | %15
[Q:1/4=157]"^.4" a2[Q:1/4=156]"^.8" a[Q:1/4=156]"^.4"e[Q:1/4=156] a2[Q:1/4=154]"^.7" e2 | %16
[Q:1/4=153] !fermata!a8 ||[Q:1/4=158] z8 | z2 ad c2 de |{e} =f4 z4 | z2 ad c2 de |{e} =f4 z4 | %22
 P=f2 ef gefd |{d} e4 z4 | z2 g=c B2 cd |{d} e4 z4 | z2 g=c B2 cd | e2 =c'e c'2 e2 | d2 bd b2 d2 | %29
 =c2 ac a2 c2 | Ba=fd B2 A2 | %31
[Q:1/4=158] ^G2 eB[Q:1/4=157]"^.9" e2[Q:1/4=157]"^.8" e[Q:1/4=157]"^.6"B | %32
[Q:1/4=157]"^.4" e2[Q:1/4=156]"^.8" e[Q:1/4=156]"^.4"B[Q:1/4=156] e2[Q:1/4=154]"^.7" B2 | %33
[Q:1/4=153] !fermata!e8 ||[Q:1/4=158] z8 | z2 ae d2 =cB |{B} =c4 z4 | z2 ae d2 =cB | =c2 ^d4 ef | %39
 B2 be =d2 =cB | =c2 ^d4 ef | B2 be =d2 ^cB | cAaA cAaA | cAaA cAaA | fdec dBca | ca^gf edcB | %46
 cAaA cAaA | cAaA cAaA | fdec dBca | ca^gf edcB | A2 ^d4 ef | E2 =d4 cB | c2 ^d4 ef | E2 =d4 cB | %54
 caec fdBa | A4 P^G4 | %56
[Q:1/4=158] Ac[Q:1/4=157]"^.9"B[Q:1/4=157]"^.8"A[Q:1/4=157]"^.6" F[Q:1/4=157]"^.4"d[Q:1/4=157]"^.1"c[Q:1/4=156]"^.6"B | %57
[Q:1/4=156]"^.1" E4[Q:1/4=153] PB4 |[Q:1/4=148] A8 ::[Q:1/4=158] z2 cA c2 d2 | e2 cG c2 e2 | %61
 g2 fe d2 c2 | d4 f4- | f4 Pe4 | d4 f4- | f4"^[    ]" Pe4 | d2 bd b2 d2 | z2 bd b2 d2 | %68
 z2 gc g2 c2 | z2 gB g2 B2 | z2 gA g2 A2 | z2 fA f2 A2 | z2 eG e2 G2 | z2 eG e2 G2 | F2 dF d2 F2 | %75
 E2 ^A4 B2- | B=AGF e2 d2 | %77
[Q:1/4=158] c2 AE[Q:1/4=157]"^.9" A2[Q:1/4=157]"^.8" A[Q:1/4=157]"^.6"E | %78
[Q:1/4=157]"^.4" A2[Q:1/4=156]"^.8" A[Q:1/4=156]"^.4"E[Q:1/4=156] A2[Q:1/4=154]"^.7" E2 | %79
[Q:1/4=153] !fermata!A8 ||[Q:1/4=158] z8 | z2 d'a g2 =fe |{e} =f4 z4 | z2 d'a g2 =fe | =f2 ^g4 ab | %85
 A2 =g4 =fe | =f2 ^g4 ab | A2 =g4 ^fe | fdd'd fdd'd | fdd'd fdd'd | bgaf gefd' | fd'c'b agfe | %92
 fdd'd fdd'd | fdd'd fdd'd | bgaf gefd' | fd'c'b agfe | d2 ad a2 =c2 | Bbge ^c2 de | A2 e2 Pe4- | %99
 ebge c2 de | Afed Pe4 | %101
[Q:1/4=158] da[Q:1/4=157]"^.9"g[Q:1/4=157]"^.7"f[Q:1/4=157]"^.5" b[Q:1/4=157]"^.1"g[Q:1/4=156]"^.6"f[Q:1/4=156]e | %102
[Q:1/4=155]"^.2" A4[Q:1/4=150]"^.5" Pe4 |[Q:1/4=143] d8 :| %104
V:2
 z8 | z8 | z8 | z8 | z2 DA, D2 E2 | F2 ED E2 C2 | z2 DA, D2 E2 | F2 ED E2 DC | D4 D4 | E4 C4 | %10
 D6 F,2 | G,2 F,2 E,2 D,2 | A,,6 F,2 | G,2 F,2 E,2 D,2 | A,,4 A,,4 | A,,4 A,,4 | !fermata!A,,8 || %17
 D,2 =F,2 A,2 D2 | =F4 E4 | D,2 =F,2 A,2 D2 | =F4 E4 | D,2 =F,2 A,2 D2 | G,4 G,4 | %23
 =C,2 E,2 G,2 =C2 | E4 D4 | =C,2 E,2 G,2 =C2 | E4 D4 | =C4 =C,4 | G,4 ^G,4 | A,4 A,,4 | D,4 D,4 | %31
 E,4 E,4 | E,4 E,,4 | !fermata!E,,8 || A,,2 =C,2 E,2 A,2 | =C4 B,4 | A,,2 =C,2 E,2 A,2 | =C4 B,4 | %38
 A,4 A,4 | ^G,4 E,4 | A,,4 A,4 | ^G,4 E,4 | A,4 ^G,4 | F,4 E,4 | D,4 D,4 | E,4 E,,4 | A,4 ^G,4 | %47
 F,4 E,4 | D,4 D,4 | E,4 E,,4 | A,,4 A,4 | ^G,4 E,4 | A,,4 A,4 | ^G,4 E,4 | A,4 D,4 | E,4 E,,4 | %56
 A,,4 D,4 | E,4 E,,4 | A,,8 :: A,4 A,4 | =G,4 G,4 | F,4 F,4 | z2 B,F, B,2 C2 | D2 CB, C2 B,^A, | %64
 B,2 B,F, B,2 C2 | D2 CB, C2 B,^A, | B,4 B,4 | G,4 G,4 | E,4 E,4 | D,4 D,4 | C,4 C,4 | ^D,4 D,4 | %72
 E,4 E,4 | C,4 C,4 | D,4 D,4 | G,4 G,4 | G,4 G,,4 | A,,4 A,,4 | A,,4 A,,4 | !fermata!A,,8 || %80
 D,2 =F,2 A,2 D2 | =F4 E4 | D,2 =F,2 A,2 D2 | =F4 E4 | D4 D4 | C4 A,4 | D,4 D4 | C4 A,4 | D4 C4 | %89
 B,4 A,4 | G,4 G,4 | A,4 A,,4 | D4 C4 | B,4 A,4 | G,4 G,4 | A,4 A,,4 | D,4 F,4 | G,4 G,4 | %98
 A,4 A,4 | G,4 G,4 | A,4 G,4 | F,4 G,4 | A,4 A,,4 | [D,,D,]8 :| %104

